!!!COM: Palestrina, Giovanni Perluigi da
!!!OPR: Panem nostrum
!!!OTL: Agnus II
**kern	**kern	**kern	**kern	**kern	**kern
*Ibass	*Ibarit	*Itenor	*Itenor	*Icalto	*Icant
!Bassus	!Baritone	!Tenor 2	!Tenor 1	!Altus	!Cantus
*clefF4	*clefF4	*clefGv2	*clefGv2	*clefG2	*clefG2
*k[b-]	*k[b-]	*k[b-]	*k[b-]	*k[b-]	*k[b-]
*G:dor	*G:dor	*G:dor	*G:dor	*G:dor	*G:dor
*M4/2	*M4/2	*M4/2	*M4/2	*M4/2	*M4/2
=1	=1	=1	=1	=1	=1
0r	0r	0r	0r	2r	0b-
.	.	.	.	2b-	.
.	.	.	.	2g	.
.	.	.	.	[2b-	.
=2	=2	=2	=2	=2	=2
0r	0r	0r	0r	2b-]	0cc
.	.	.	.	4a	.
.	.	.	.	4g	.
.	.	.	.	1a	.
=3	=3	=3	=3	=3	=3
2r	0r	0r	0B-	2b-	0dd
2B-	.	.	.	2f	.
2G	.	.	.	2g	.
[2B-	.	.	.	2f	.
=4	=4	=4	=4	=4	=4
2B-]	0r	0r	0c	1f	0cc
4A	.	.	.	.	.
4G	.	.	.	.	.
1A	.	.	.	1r	.
=5	=5	=5	=5	=5	=5
1B-	0r	0r	0d	0f	2r
.	.	.	.	.	2ff
1BB-	.	.	.	.	2dd
.	.	.	.	.	[2ff
=6	=6	=6	=6	=6	=6
1r	0r	0r	0c	0g	2ff]
.	.	.	.	.	4ee
.	.	.	.	.	4dd
1C	.	.	.	.	1ee
=7	=7	=7	=7	=7	=7
2F	0r	0r	2r	0a	0ff
4D	.	.	2f	.	.
4E	.	.	.	.	.
4F	.	.	2d	.	.
4G	.	.	.	.	.
4A	.	.	[2f	.	.
4B-	.	.	.	.	.
=8	=8	=8	=8	=8	=8
1c	0r	0r	4f]	1g	1r
.	.	.	8e	.	.
.	.	.	8d	.	.
.	.	.	2e	.	.
[1F	.	.	2.f	1a	2r
.	.	.	.	.	2cc
.	.	.	8e	.	.
.	.	.	8d	.	.
=9	=9	=9	=9	=9	=9
2F]	0r	0r	1c	2f	2a
2E	.	.	.	2g	1cc
[1D	.	.	[1F	2a	.
.	.	.	.	2f	4b
.	.	.	.	.	4a
=10	=10	=10	=10	=10	=10
1D]	0r	0r	1F]	2d	1b
.	.	.	.	2.f	.
1C	.	.	1G	.	2cc
.	.	.	.	8e	.
.	.	.	.	8d	.
.	.	.	.	2e	[2cc
=11	=11	=11	=11	=11	=11
2r	0F	0r	1A	1.f	2cc]
2F	.	.	.	.	2a
2D	.	.	2B-	.	2dd
[2F	.	.	4A	2a	2cc
.	.	.	4B-	.	.
=12	=12	=12	=12	=12	=12
2F]	0G	0c	4c	1g	2r
.	.	.	4d	.	.
4E	.	.	4e	.	1gg
4D	.	.	4f	.	.
1E	.	.	1g	2r	.
.	.	.	.	2g	2ee
=13	=13	=13	=13	=13	=13
0D	0A	0d	2r	2f	1ff
.	.	.	1f	2a	.
.	.	.	.	4f	1dd
.	.	.	.	4g	.
.	.	.	2f	4a	.
.	.	.	.	4b-	.
=14	=14	=14	=14	=14	=14
0r	0A	0e	2e	1cc	2r
.	.	.	2A	.	2cc
.	.	.	2.a	2r	1cc
.	.	.	.	2c	.
.	.	.	8g	.	.
.	.	.	8f	.	.
=15	=15	=15	=15	=15	=15
1C	0G	0e	2e	1c	0gg
.	.	.	2g	.	.
1C	.	.	2r	1g	.
.	.	.	2G	.	.
=16	=16	=16	=16	=16	=16
1.G	1B-	0d	1G	2g	2r
.	.	.	.	1b-	2g
.	1B-	.	[1d	.	2g
2G	.	.	.	2g	[2dd
=17	=17	=17	=17	=17	=17
2D	1A	1f	2d]	1a	2dd]
2D	.	.	2d	.	2ff
1F	1A	1f	2A	2a	2ff
.	.	.	2A	2f	2cc
=18	=18	=18	=18	=18	=18
1C	1G	1e	1c	1g	4ee
.	.	.	.	.	4ff
.	.	.	.	.	4gg
.	.	.	.	.	4ff
1C	1G	1e	2G	1c	4ee
.	.	.	.	.	4dd
.	.	.	2c	.	2ee
=19	=19	=19	=19	=19	=19
2D	0F	1d	2A	0f	1ff
2BB-	.	.	2B-	.	.
1D	.	1d	4A	.	2r
.	.	.	4F	.	.
.	.	.	[2B-	.	2f
=20	=20	=20	=20	=20	=20
1F	0r	0c	2B-]	2r	1f
.	.	.	4A	2f	.
.	.	.	4G	.	.
1F	.	.	1A	2.f	1cc
.	.	.	.	4e	.
=21	=21	=21	=21	=21	=21
0BB-	0r	0r	2B-	2d	2dd
.	.	.	1d	2B-	2.ff
.	.	.	.	1b-	.
.	.	.	.	.	4ee
.	.	.	2f	.	[2dd
=22	=22	=22	=22	=22	=22
1C	0G	0r	2e	2g	4dd]
.	.	.	.	.	4cc
.	.	.	2c	1g	2cc
1r	.	.	2.d	.	2b-
.	.	.	.	2b-	2g
.	.	.	4e	.	.
=23	=23	=23	=23	=23	=23
1.D	0F	0d	4f	2a	1dd
.	.	.	4g	.	.
.	.	.	2a	2f	.
.	.	.	1A	2.a	1r
2F	.	.	.	.	.
.	.	.	.	4b-	.
=24	=24	=24	=24	=24	=24
2E	0G	0c	2r	1cc	0r
2C	.	.	1e	.	.
1E	.	.	.	1g	.
.	.	.	2g	.	.
=25	=25	=25	=25	=25	=25
0D	0A	0d	2f	0r	2r
.	.	.	2d	.	1dd
.	.	.	1f	.	.
.	.	.	.	.	2ff
=26	=26	=26	=26	=26	=26
2r	0G	0e	4g	2r	2ee
.	.	.	4f	.	.
1C	.	.	4e	1g	2cc
.	.	.	4d	.	.
.	.	.	1c	.	2.ee
2C	.	.	.	2cc	.
.	.	.	.	.	4ff
=27	=27	=27	=27	=27	=27
4G	0G	0d	2r	2b-	2.gg
4F	.	.	.	.	.
4G	.	.	2d	1g	.
4A	.	.	.	.	8ff
.	.	.	.	.	8ee
2.B-	.	.	2B-	.	2.dd
.	.	.	[2G	[2b-	.
4A	.	.	.	.	4cc
=28	=28	=28	=28	=28	=28
1G	0r	0d	4G]	4b-]	1b-
.	.	.	4A	4a	.
.	.	.	4B-	1g	.
.	.	.	4c	.	.
1D	.	.	2d	.	1a
.	.	.	2A	2f#	.
=29	=29	=29	=29	=29	=29
2.G	0r	0r	2.B-	2g	2g
.	.	.	.	1b-	1dd
8F	.	.	4c	.	.
8E	.	.	.	.	.
1D	.	.	1d	.	.
.	.	.	.	2a	2ff
=30	=30	=30	=30	=30	=30
0C	0G	0r	2g	2.cc	2ee
.	.	.	1e	.	2cc
.	.	.	.	8b-	.
.	.	.	.	8a	.
.	.	.	.	2g	1ee
.	.	.	2e	2cc	.
=31	=31	=31	=31	=31	=31
1.D	0F	0d	1.f	1a	2.dd
.	.	.	.	.	8cc
.	.	.	.	.	8b-
.	.	.	.	1f	2.a
2F	.	.	2d	.	.
.	.	.	.	.	4b-
=32	=32	=32	=32	=32	=32
2E	0G	0c	1e	2r	1cc
2C	.	.	.	1e	.
1E	.	.	1g	.	1r
.	.	.	.	2g	.
=33	=33	=33	=33	=33	=33
0D	0A	0d	0r	2f	2r
.	.	.	.	2d	1dd
.	.	.	.	1f	.
.	.	.	.	.	2ff
=34	=34	=34	=34	=34	=34
2r	0G	0e	2r	1g	2ee
1C	.	.	1c	.	2cc
.	.	.	.	2r	2.ee
2C	.	.	2c	2g	.
.	.	.	.	.	4ff
=35	=35	=35	=35	=35	=35
2G	0G	0d	1.B-	2g	1gg
2G	.	.	.	2b-	.
2.B-	.	.	.	2g	1dd
.	.	.	2G	[2b-	.
4A	.	.	.	.	.
=36	=36	=36	=36	=36	=36
1G	0r	0d	2.B-	4b-]	2r
.	.	.	.	4a	.
.	.	.	.	1g	1dd
.	.	.	4c	.	.
1D	.	.	2d	.	.
.	.	.	2A	2f#	2dd
=37	=37	=37	=37	=37	=37
1G	0G	0r	4B-	[0g	2dd
.	.	.	4c	.	.
.	.	.	2.d	.	2b-
1C	.	.	.	.	1ee-
.	.	.	4c	.	.
.	.	.	[2c	.	.
=38	=38	=38	=38	=38	=38
[0G	[0G	0d	2c]	1g_	[0dd
.	.	.	4B	.	.
.	.	.	4A	.	.
.	.	.	1B	1g_	.
=39	=39	=39	=39	=39	=39
0G]	0G]	0d	0B	0g]	0dd]
==	==	==	==	==	==
*-	*-	*-	*-	*-	*-
!!!CDT: 1525/^1526/-1594/2/2
!!!OCY: Italia
!!!AGN: Mass (Tenor)
!!!AST: renaissance, vocal
!!!ASW: Prayer
!!!PWK: Masses, Book 10
!!!RNB: Cadence finals: C
!!!YOR: Le Opere Complete, v. 27, p. 226
!!!YOO: Rome, Italy: Fratelli Scalera
!!!END: 1992//
!!!EED: John Miller
!!!YEC: Copyright 2000, John Miller
!!!YEN: United States of America
!!!YEM: Rights to all derivative electronic formats reserved.
!!!YEM: Refer to licensing agreement for further details.
!!!YEM: This file must be accompanied by the licensing agreement.
!!!YEM: A copy of the licensing agreement may be found at http://www.music-cog.ohio-state.edu/HumdrumDatabases/Palestrina/license.txt
!!!EMD: converted to Humdrum by Bret Aarden
